icons/home-ch.svg

<svg width="24" height="24" viewBox="0 0 24 24" fill="none" xmlns="http://www.w3.org/2000/svg">
<path fill-rule="evenodd" clip-rule="evenodd" d="M13.2447 4.9074C12.5299 4.2641 11.4629 4.2641 10.7481 4.9074L10.7419 4.913L5.7607 9.29638C5.17991 9.88487 4.79639 10.695 4.79639 11.4499V18.5499C4.79639 19.3357 5.4606 19.9999 6.2464 19.9999H17.7464C18.6702 19.9999 19.2576 19.3149 19.199 18.6122L19.1964 18.5811V11.4499C19.1964 10.6462 18.8753 9.8593 18.2525 9.31435L18.2509 9.31296L13.2447 4.9074ZM14.2448 3.78946C12.9606 2.63674 11.0321 2.63675 9.74796 3.7895L4.73298 8.20268L4.71607 8.21959C3.90582 9.02984 3.29639 10.2118 3.29639 11.4499V18.5499C3.29639 20.1642 4.6322 21.4999 6.2464 21.4999H17.7464C19.4116 21.4999 20.8167 20.2022 20.6964 18.5211V11.4499C20.6964 10.254 20.2178 9.04131 19.2412 8.1863C19.2409 8.18603 19.2406 8.18576 19.2403 8.18549L14.2448 3.78946Z" fill="black"/>
<path fill-rule="evenodd" clip-rule="evenodd" d="M12.0464 11C11.356 11 10.7964 11.5596 10.7964 12.25C10.7964 12.9404 11.356 13.5 12.0464 13.5C12.7367 13.5 13.2964 12.9404 13.2964 12.25C13.2964 11.5596 12.7367 11 12.0464 11ZM9.29639 12.25C9.29639 10.7312 10.5276 9.5 12.0464 9.5C13.5652 9.5 14.7964 10.7312 14.7964 12.25C14.7964 13.7688 13.5652 15 12.0464 15C10.5276 15 9.29639 13.7688 9.29639 12.25Z" fill="black"/>
<path fill-rule="evenodd" clip-rule="evenodd" d="M16.8463 2.5C17.2605 2.5 17.5963 2.83579 17.5963 3.25V6.95001C17.5963 7.36423 17.2605 7.70001 16.8463 7.70001C16.4321 7.70001 16.0963 7.36423 16.0963 6.95001V3.25C16.0963 2.83579 16.4321 2.5 16.8463 2.5Z" fill="black"/>
</svg>

<svg xmlns="http://www.w3.org/2000/svg" fill="none" viewBox="0 0 24 24">
  <path fill="#000" fill-rule="evenodd" d="M13.245 4.907a1.856 1.856 0 0 0-2.497 0l-.006.006L5.76 9.296c-.581.589-.965 1.399-.965 2.154v7.1c0 .786.665 1.45 1.45 1.45h11.5c.924 0 1.512-.685 1.453-1.388l-.003-.03V11.45c0-.804-.32-1.59-.944-2.136l-.001-.001-5.006-4.406Zm1-1.118a3.356 3.356 0 0 0-4.497 0L4.733 8.204l-.017.017c-.81.81-1.42 1.992-1.42 3.23v7.1a2.97 2.97 0 0 0 2.95 2.95h11.5c1.666 0 3.07-1.298 2.95-2.979V11.45c0-1.196-.478-2.409-1.455-3.264l-4.996-4.397Z" clip-rule="evenodd"/>
  <path fill="#000" fill-rule="evenodd" d="M12.046 11a1.25 1.25 0 1 0 0 2.5 1.25 1.25 0 0 0 0-2.5Zm-2.75 1.25a2.75 2.75 0 1 1 5.5 0 2.75 2.75 0 0 1-5.5 0Zm7.55-9.75a.75.75 0 0 1 .75.75v3.7a.75.75 0 0 1-1.5 0v-3.7a.75.75 0 0 1 .75-.75Z" clip-rule="evenodd"/>
</svg>
